X:1
T:Old Hag, You Have Killed Me (Jig)
R:jig
M:6/8
L:1/8
O:Trad. (4.11.2015/NS)
K:Dmix
"D"FDD cAA|ded "Am"cAG|"D"A2A BAG|"Am"A"<("">)"BA A2G|
"D"FDD cAA|ded cAF|"G"G3 GBA|1 G"<("">)"AG G2E:|2 G"<("">)"AG G2e||
|:"D"f2f "/E"g"<("">)"fg|"/F#"afd cAG|"D"A2A BAG|"Am"A"<("">)"BA A2e|
"D"f"<("">)"ef "/E"g"<("">)"fg|"/F#"afd cAF|"G"G2G GBA|1 G"<("">)"AG G2e:|2 G"<("">)"AG G2E||
